X: 14157
T: From Dingle With Love
R: slide
M: 12/8
K: Gmajor
|:D3 DB,D E2D G2D|E2D GAB A3 AGE|
DED DB,D E2G GAB|1 dBG ABA G3 GFE:|2 dBG ABA G3 GBd||
|:g3 gag e2d dBd|edB dBG A3 AGA|
B3 BAG E2G D2B|1 dBG ABA G3 GBd:|2 dBG ABA G3 GFE||

